image/china-on1.svg

<svg width="34" height="34" viewBox="0 0 34 34" fill="none" xmlns="http://www.w3.org/2000/svg">
<path d="M17.1667 31.3333C24.9907 31.3333 31.3333 24.9907 31.3333 17.1667C31.3333 9.34263 24.9907 3 17.1667 3C9.34263 3 3 9.34263 3 17.1667C3 24.9907 9.34263 31.3333 17.1667 31.3333Z" stroke="#E03D3B" stroke-width="2" stroke-linecap="round" stroke-linejoin="round"/>
<path d="M3 17.1667H31.3333" stroke="#E03D3B" stroke-width="2" stroke-linecap="round" stroke-linejoin="round"/>
<path d="M17.1667 3C20.7101 6.87933 22.7239 11.9137 22.8333 17.1667C22.7239 22.4196 20.7101 27.454 17.1667 31.3333C13.6232 27.454 11.6094 22.4196 11.5 17.1667C11.6094 11.9137 13.6232 6.87933 17.1667 3V3Z" stroke="#E03D3B" stroke-width="2" stroke-linecap="round" stroke-linejoin="round"/>
</svg>

<?xml version="1.0" encoding="UTF-8" standalone="no"?>
<svg width="34" xmlns="http://www.w3.org/2000/svg" fill="none" viewBox="0 0 34 34" height="34">
 <path stroke-linejoin="round" stroke="#E03D3B" stroke-width="2" stroke-linecap="round" d="m17.167 31.333c7.824 0 14.166-6.342 14.166-14.166 0-7.8244-6.342-14.167-14.166-14.167-7.8244 0-14.167 6.3426-14.167 14.167 0 7.824 6.3426 14.166 14.167 14.166z"/>
 <path stroke-linejoin="round" stroke="#E03D3B" stroke-width="2" stroke-linecap="round" d="m3 17.167h28.333"/>
 <path stroke-linejoin="round" stroke="#E03D3B" stroke-width="2" stroke-linecap="round" d="m17.167 3c3.543 3.8793 5.557 8.914 5.666 14.167-0.109 5.253-2.123 10.287-5.666 14.166-3.544-3.879-5.558-8.913-5.667-14.166 0.109-5.253 2.123-10.288 5.667-14.167v0z"/>
</svg>
